X:1
T:Er du skreddar (Norsk Masurka)
R:polska O
C:after Alex Courdray
Z:Tr. Bill Boyd 1/31/97
P:AABBA
M:3/4
L:1/16
Q:1/4=130
K:D
P:A
|: "D" A3f d4 B4| A3F A4 d4 |"A" c3e B4 c4|"D" d3f A8\
| "D" A3f d4 B4| A3F A4 d4 |"A" c3e B4 c4|"D" d4 d8 :|
P:B
|: "Bm" f3g f4 f4| f3g f4 f4| f3g f3e d3c| B4 B8 \
| "A" e3f e4 e4| e3f e4 e4| e3f e3d c3B|"D" A4 d8 :|
P:A
| "D" A3f d4 B4| A3F A4 d4 |"A" c3e B4 c4|"D" d3f A8\
| "D" A3f d4 B4| A3F A4 d4 |"A" c3e B4 c4|"D" d4 d8 |
